assets/spring-color/SpringColor4.svg

<svg xmlns="http://www.w3.org/2000/svg" data-name="Layer 1" viewBox="0 0 128 128"><path fill="#e1efda" d="M31.091 25.329h65.817a10.512 10.512 0 0110.512 10.512v65.816a10.512 10.512 0 01-10.512 10.513H31.091a10.512 10.512 0 01-10.511-10.512V35.84a10.511 10.511 0 0110.511-10.511z"/><path fill="#c96528" fill-rule="evenodd" d="M87.657 15.83a4.7 4.7 0 014.686 4.686v8.314a4.686 4.686 0 11-9.372 0v-8.314a4.7 4.7 0 014.686-4.686zm-47.313 0a4.7 4.7 0 014.686 4.686v8.314a4.686 4.686 0 11-9.372 0v-8.314a4.7 4.7 0 014.686-4.686z"/><path fill="#ef8630" fill-rule="evenodd" d="M58.866 59.221a5.291 5.291 0 0110.269 0 5.291 5.291 0 018.894 5.135 5.291 5.291 0 015.134 8.894 5.291 5.291 0 010 10.269 5.291 5.291 0 01-5.134 8.893 5.291 5.291 0 01-8.894 5.134 5.291 5.291 0 01-10.269 0 5.291 5.291 0 01-8.894-5.135 5.291 5.291 0 01-5.134-8.893 5.291 5.291 0 010-10.269 5.291 5.291 0 015.135-8.894 5.291 5.291 0 018.894-5.134z"/><circle cx="64" cy="78.383" r="9.27" fill="#fc0"/><path fill="#ef8630" fill-rule="evenodd" d="M20.58 45h86.84v-9.16a10.542 10.542 0 00-10.512-10.511h-4.565v3.5a4.686 4.686 0 11-9.372 0v-3.5H45.03v3.5a4.686 4.686 0 11-9.372 0v-3.5h-4.567A10.542 10.542 0 0020.58 35.84z"/></svg>

<svg id="Layer_1" data-name="Layer 1" xmlns="http://www.w3.org/2000/svg" viewBox="0 0 128 128"><title>Artboard 4</title><path d="M31.091,25.329H96.908A10.512,10.512,0,0,1,107.42,35.841v65.816A10.512,10.512,0,0,1,96.908,112.17H31.091A10.512,10.512,0,0,1,20.58,101.658V35.84A10.511,10.511,0,0,1,31.091,25.329Z" style="fill:#e1efda"/><path d="M87.657,15.83h0a4.7,4.7,0,0,1,4.686,4.686V28.83a4.686,4.686,0,1,1-9.372,0V20.516A4.7,4.7,0,0,1,87.657,15.83Zm-47.313,0h0a4.7,4.7,0,0,1,4.686,4.686V28.83a4.686,4.686,0,1,1-9.372,0V20.516A4.7,4.7,0,0,1,40.344,15.83Z" style="fill:#c96528;fill-rule:evenodd"/><path d="M58.866,59.221a5.291,5.291,0,0,1,10.269,0,5.291,5.291,0,0,1,8.894,5.135,5.291,5.291,0,0,1,5.134,8.894,5.291,5.291,0,0,1,0,10.269,5.291,5.291,0,0,1-5.134,8.893,5.291,5.291,0,0,1-8.894,5.134,5.291,5.291,0,0,1-10.269,0,5.291,5.291,0,0,1-8.894-5.135,5.291,5.291,0,0,1-5.134-8.893,5.291,5.291,0,0,1,0-10.269,5.291,5.291,0,0,1,5.135-8.894,5.291,5.291,0,0,1,8.894-5.134Z" style="fill:#ef8630;fill-rule:evenodd"/><circle cx="64" cy="78.383" r="9.27" style="fill:#fc0"/><path d="M20.58,45H107.42V35.84A10.542,10.542,0,0,0,96.908,25.329H92.343v3.5a4.686,4.686,0,1,1-9.372,0v-3.5H45.03v3.5a4.686,4.686,0,1,1-9.372,0v-3.5H31.091A10.542,10.542,0,0,0,20.58,35.84Z" style="fill:#ef8630;fill-rule:evenodd"/></svg>
